lib/brands/icons/playstation.svg

<svg xmlns="http://www.w3.org/2000/svg" fill="none" aria-hidden="true" viewBox="0 0 48 48"><g id="playstation-Icon"><path id="playstation" fill="#0070D1" d="M1.03674 32.9323C-0.759714 34.1903 -0.427086 36.3576 3.67154 37.7129C7.77017 39.0682 12.534 39.3484 16.7258 38.5935C16.606 38.5935 16.9653 38.5935 16.7258 38.5935V34.3161L12.6538 35.7C11.0969 36.2032 9.53996 36.329 7.98303 35.9516C6.7854 35.5742 7.02492 34.8194 8.46209 34.1903L16.7258 31.171V26.5161L5.22847 30.6677C3.7913 31.171 2.35414 31.9258 1.03674 32.9323ZM28.8219 14.0613V26.2645C33.7322 28.7806 37.5646 26.2645 37.5646 19.7226C37.5646 13.0548 35.2891 10.0355 28.7021 7.64516C25.229 6.3871 21.6361 5.25484 18.0432 4.5V40.8581L26.4266 43.5V12.929C26.4266 11.5452 26.4266 10.5387 27.3847 10.9161C28.7021 11.2935 28.8219 12.6774 28.8219 14.0613ZM44.3912 30.0387C40.918 28.7806 37.2054 28.2774 33.6124 28.6548C31.6169 28.7859 29.7441 29.3803 27.8638 30.0387V34.9452L35.6484 31.9258C37.2054 31.4226 38.7623 31.2968 40.3192 31.6742C41.5168 32.0516 41.2773 32.8065 39.8402 33.4355L27.8638 38.0903V42.871L44.3912 36.4548C45.5888 35.9516 46.6667 35.3226 47.6248 34.3161C48.4631 33.0581 48.1038 31.2968 44.3912 30.0387Z"/></g></svg>

<svg xmlns="http://www.w3.org/2000/svg" fill="none" aria-hidden="true" viewBox="0 0 48 48"><path fill="#0070D1" d="M1.037 32.932c-1.797 1.258-1.464 3.426 2.635 4.78 4.098 1.356 8.862 1.636 13.054.881-.12 0 .24 0 0 0v-4.277L12.654 35.7c-1.557.503-3.114.629-4.671.252-1.198-.378-.958-1.133.48-1.762l8.263-3.019v-4.655L5.228 30.668a15.23 15.23 0 0 0-4.191 2.264Zm27.785-18.87v12.203c4.91 2.516 8.743 0 8.743-6.542 0-6.668-2.276-9.687-8.863-12.078-3.473-1.258-7.066-2.39-10.659-3.145v36.358l8.384 2.642V12.929c0-1.384 0-2.39.958-2.013 1.317.377 1.437 1.761 1.437 3.145Zm15.57 15.977c-3.474-1.258-7.187-1.762-10.78-1.384-1.995.13-3.868.725-5.748 1.384v4.906l7.784-3.02c1.557-.502 3.114-.628 4.671-.25 1.198.377.958 1.131-.479 1.76L27.864 38.09v4.781l16.527-6.416c1.198-.503 2.276-1.132 3.234-2.139.838-1.258.479-3.02-3.234-4.277Z"/></svg>
